build/Karasa-Jaga/scalable/devices/computer-fail-symbolic.svg

<svg height="16" width="16" xmlns="http://www.w3.org/2000/svg" xmlns:xlink="http://www.w3.org/1999/xlink"><filter id="a" color-interpolation-filters="sRGB"><feBlend in2="BackgroundImage" mode="darken"/></filter><g fill="#bebebe"><path d="m6.7956495 12.406377c-.023997.115008-.053752.206559-.090326.249472-.1625761.19076-.5772213.271722-.9075642.305389-.9866391.100558-1.9441662.630833-1.9441662 1.135531 0 .902983 2.3334774 1.372099 4.1464076 1.372099 1.8025892 0 4.1464063-.469116 4.1464063-1.372099 0-.525377-.961828-1.034978-1.948468-1.135531-.3303417-.03367-.7573314-.104762-.9075619-.305389-.035521-.04744-.062555-.137477-.08603-.249472z" fill-rule="evenodd"/><path d="m4.6455544 8.1537226-.0000004 1.1273885h1 4.636943 1.127389v-1.1273885h-1.127389-4.6369426zm6.7643316 1.1273885v1.1273889h1.127388v-1.1273889zm-6.764332 0h-1.1273881v1.1273889h1.1273881z" fill-rule="evenodd" filter="url(#a)" transform="matrix(.88700565 0 0 .88700565 .879367 .767602)"/><path d="m6 7h4v1h-4z"/><path d="m5 9h1v1h-1z"/><path d="m10 9h1v1h-1z"/><g fill="#bebebe"><path d="m.5 0c-.277 0-.5.223-.5.5v11c0 .277.223.5.5.5h15c.277 0 .5-.223.5-.5v-11c0-.277-.223-.5-.5-.5zm.5 1h14v10h-14z"/><circle cx="5" cy="4" r="1"/><circle cx="11" cy="4" r="1"/></g></g></svg>

<?xml version="1.0" encoding="UTF-8" standalone="no"?>
<svg
   xmlns:dc="http://purl.org/dc/elements/1.1/"
   xmlns:cc="http://creativecommons.org/ns#"
   xmlns:rdf="http://www.w3.org/1999/02/22-rdf-syntax-ns#"
   xmlns:svg="http://www.w3.org/2000/svg"
   xmlns="http://www.w3.org/2000/svg"
   xmlns:sodipodi="http://sodipodi.sourceforge.net/DTD/sodipodi-0.dtd"
   xmlns:inkscape="http://www.inkscape.org/namespaces/inkscape"
   height="16"
   width="16"
   version="1.1"
   id="svg21"
   sodipodi:docname="computer-fail-symbolic.svg"
   inkscape:version="0.92.4 (unknown)">
  <metadata
     id="metadata27">
    <rdf:RDF>
      <cc:Work
         rdf:about="">
        <dc:format>image/svg+xml</dc:format>
        <dc:type
           rdf:resource="http://purl.org/dc/dcmitype/StillImage" />
        <dc:title></dc:title>
      </cc:Work>
    </rdf:RDF>
  </metadata>
  <defs
     id="defs25" />
  <sodipodi:namedview
     pagecolor="#ffffff"
     bordercolor="#666666"
     borderopacity="1"
     objecttolerance="10"
     gridtolerance="10"
     guidetolerance="10"
     inkscape:pageopacity="0"
     inkscape:pageshadow="2"
     inkscape:window-width="1366"
     inkscape:window-height="714"
     id="namedview23"
     showgrid="true"
     inkscape:snap-global="true"
     inkscape:zoom="14.75"
     inkscape:cx="0.72848649"
     inkscape:cy="9.8753401"
     inkscape:window-x="0"
     inkscape:window-y="28"
     inkscape:window-maximized="1"
     inkscape:current-layer="svg21">
    <inkscape:grid
       type="xygrid"
       id="grid837" />
  </sodipodi:namedview>
  <filter
     id="a"
     color-interpolation-filters="sRGB">
    <feBlend
       in2="BackgroundImage"
       mode="darken"
       id="feBlend2" />
  </filter>
  <g
     fill="#bebebe"
     id="g19">
    <path
       d="m6.7956495 12.406377c-.023997.115008-.053752.206559-.090326.249472-.1625761.19076-.5772213.271722-.9075642.305389-.9866391.100558-1.9441662.630833-1.9441662 1.135531 0 .902983 2.3334774 1.372099 4.1464076 1.372099 1.8025892 0 4.1464063-.469116 4.1464063-1.372099 0-.525377-.961828-1.034978-1.948468-1.135531-.3303417-.03367-.7573314-.104762-.9075619-.305389-.035521-.04744-.062555-.137477-.08603-.249472z"
       fill-rule="evenodd"
       id="path7" />
    <path
       d="m 4.6455544,8.1537226 -4e-7,1.1273885 h 1 4.636943 1.127389 V 8.1537226 H 10.282497 5.6455544 Z M 11.409886,9.2811111 V 10.4085 h 1.127388 V 9.2811111 Z m -6.764332,0 -1.1273881,0 V 10.4085 l 1.1273881,0 z"
       transform="matrix(0.88700565,0,0,0.88700565,0.879367,0.767602)"
       id="path9"
       inkscape:connector-curvature="0"
       style="fill-rule:evenodd;filter:url(#a)"
       sodipodi:nodetypes="ccccccccccccccccccc" />
    <path
       d="m 6,7 h 4 V 8 H 6 Z"
       id="path13"
       inkscape:connector-curvature="0"
       sodipodi:nodetypes="ccccc" />
    <path
       d="m 5,9 h 1 v 1 H 5 Z"
       id="path15"
       inkscape:connector-curvature="0"
       sodipodi:nodetypes="ccccc" />
    <path
       d="m 10,9 h 1 v 1 h -1 z"
       id="path17"
       inkscape:connector-curvature="0"
       sodipodi:nodetypes="ccccc" />
    <path
       inkscape:connector-curvature="0"
       style="fill:#bebebe"
       d="M 0.5,0 C 0.223,0 0,0.223 0,0.5 v 11 C 0,11.777 0.223,12 0.5,12 h 15 C 15.777,12 16,11.777 16,11.5 V 0.5 C 16,0.223 15.777,0 15.5,0 Z M 1,1 H 15 V 11 H 1 Z"
       id="path1052" />
    <circle
       style="opacity:1;fill:#bebebe;fill-opacity:1;stroke:none;stroke-width:0.5;stroke-miterlimit:4;stroke-dasharray:none;stroke-opacity:1"
       id="path845"
       cx="5"
       cy="4"
       r="1" />
    <circle
       r="1"
       cy="4"
       cx="11"
       id="circle847"
       style="opacity:1;fill:#bebebe;fill-opacity:1;stroke:none;stroke-width:0.5;stroke-miterlimit:4;stroke-dasharray:none;stroke-opacity:1" />
  </g>
</svg>
